!!!OTL:
!!!ONR: No. 8
!! From Madeleine Beland,
!! "Chansons de Voyageurs, Coureurs de Bois et Forestiers"
!! Quebec: Les Presses de l'universite/ Laval, 1982
!! ISBN 2-7637-6942-X
**kern
*clefG2
*k[b-]
*M3/4
4c
=
2f
4a
=
4cc
4a
4f
=
4f
4e
4g
=
2cc
4b-
=
(4a
4f)
4a
=
4cc
4b-
4a
=
4g
4d
4e
=
2f
4c
=
2f
4a
=
4cc
4a
4f
=
4f
4e
4g
=
2cc
4b-
=
(4a
4f)
4a
=
4cc
4b-
4a
=
4g
4d
4e
=
2f
4cc
=
2cc
4a
=
(4dd
4cc)
4cc
=
(4cc
4a)
4f
=
2.g
=
4g
4b-
4dd
=
2cc
4dd
=
(4cc
4a)
4f
=
2g
4c
=
2f
4a
=
4cc
4a
4f
=
4f
4e
4g
=
2cc
4b-
=
(4a
4f)
4a
=
(4cc
4b-)
4a
=
4g
4d
4e
=
2f
4cc
=
2cc
4a
=
(4dd
4cc)
4cc
=
(4cc
4a)
4f
=
2.g
=
4g
4b-
4dd
=
2cc
4dd
=
(4cc
4a)
4f
=
2g
4c
=
2f
4a
=
4cc
4a
4f
=
4f
4e
4g
=
2cc
4b-
=
(4a
4f)
4a
=
(4cc
4b-)
4a
=
4g
4d
4e
=
2f
==
*-
